X:1
T: The Milton Strathspey
C:
R:Strathspey
Q: 128
K:G
M:4/4
L:1/16
|:d4|Bd3 d3g ec3 A3c|BF3 F3D E4 d3c|Bd3 d3g ec3 a3g|f3d cd3 B4 d4|
Bd3 d3g ec3 A3c|BF3 F3D E4 D3C|B,3D GB3 c3A E3G|((3F2D2d2) ((3c2B2A2) G4 G3F|
EG3 G3E D4 B,4|C3B, C3D B,4 G3F|EG3 G3E D4 G4|A3G AB3 d4 g3f|
eg3 g3e d4 B4|A3B A3G E4 D3C|B,3C GB3 c3A E3G|((3F2D2d2) ((3c2B2A2) G4:|
